src/icons/ordered-list.svg

<svg xmlns="http://www.w3.org/2000/svg" viewBox="0 0 24 24">
  <path fill-rule="evenodd" clip-rule="evenodd"
    d="M5.5 7C5.22386 7 5 7.22386 5 7.5C5 7.77614 5.22386 8 5.5 8H6V10H5.5C5.22386 10 5 10.2239 5 10.5C5 10.7761 5.22386 11 5.5 11H6H7H7.5C7.77614 11 8 10.7761 8 10.5C8 10.2239 7.77614 10 7.5 10H7V8V7H5.5ZM10 9H18C18.552 9 19 8.553 19 8C19 7.447 18.552 7 18 7H10C9.448 7 9 7.447 9 8C9 8.553 9.448 9 10 9ZM10 13H18C18.552 13 19 12.553 19 12C19 11.447 18.552 11 18 11H10C9.448 11 9 11.447 9 12C9 12.553 9.448 13 10 13ZM18 17H10C9.448 17 9 16.553 9 16C9 15.447 9.448 15 10 15H18C18.552 15 19 15.447 19 16C19 16.553 18.552 17 18 17Z" />
</svg>

<svg xmlns="http://www.w3.org/2000/svg" viewBox="0 0 24 24"><path fill-rule="evenodd" clip-rule="evenodd" d="M5.5 7a.5.5 0 000 1H6v2h-.5a.5.5 0 000 1h2a.5.5 0 000-1H7V7H5.5zM10 9h8a1 1 0 100-2h-8a1 1 0 100 2zm0 4h8a1 1 0 100-2h-8a1 1 0 100 2zm8 4h-8a1 1 0 110-2h8a1 1 0 110 2z"/></svg>
